swiss/communes/5003.svg

<svg xmlns="http://www.w3.org/2000/svg" xmlns:xlink="http://www.w3.org/1999/xlink" height="763" width="603" version="1.0"><defs><radialGradient xlink:href="#a" id="b" gradientUnits="userSpaceOnUse" gradientTransform="matrix(1.21503 0 0 1.26667 -839.192 -490.49)" cx="858.042" cy="579.933" fx="858.042" fy="579.933" r="300"/><linearGradient id="a"><stop style="stop-color:#fff;stop-opacity:.3137255" offset="0"/><stop offset=".19" style="stop-color:#fff;stop-opacity:.25098041"/><stop style="stop-color:#6b6b6b;stop-opacity:.1254902" offset=".6"/><stop style="stop-color:#000;stop-opacity:.1254902" offset="1"/></linearGradient></defs><g style="opacity:1"><path d="M1.5 1.5v458.869C1.5 626.68 135.814 761.5 301.5 761.5c165.687 0 300-134.82 300-301.131V1.5H1.5z" style="opacity:1;fill:#2b5df2"/></g><g style="opacity:1"><path d="M238 754.718a300.053 300.053 0 0 0 63.5 6.781c21.79 0 43.029-2.354 63.5-6.781V1.5H238v753.218z" style="fill:#fff"/><path d="M238 1.5v753.218M364.999 754.718V1.5" style="fill:none;stroke:#000;stroke-width:3"/><g><path style="fill:#e20909;stroke:#000;stroke-width:3;stroke-linecap:round;stroke-linejoin:round" d="M301.499 329.156h-14.786v26.89h-33.171v-26.89h-29.57v26.89h-39.016l13.042 162.918H238v-88.576c0-25.834 33.423-52.452 63.499-52.452h.001v-48.78h-.001z"/><path transform="translate(-.038 -.045)" style="fill:#e20909;stroke:#000;stroke-width:3;stroke-linecap:round;stroke-linejoin:round" d="M97.472 210.96 73.218 519.009H205.03L180.776 210.96H97.472z"/><path transform="translate(-.038 -.045)" style="fill:#e20909;stroke:#000;stroke-width:3;stroke-linecap:round;stroke-linejoin:round" d="M177.085 205.299h-24.78v-24.253h-26.363v24.253h-24.779v-24.253H74.8v38.739h128.648v-38.739h-26.363v24.253z"/><path style="fill:#fcef3c;stroke:#000;stroke-width:3;stroke-linecap:round;stroke-linejoin:round" d="M379.026 329.156h-29.57v26.89h-33.172v-26.89h-14.785v48.78c30.075 0 63.5 26.618 63.5 52.452v88.576h40l13.044-162.917h-39.017v-26.891h0z"/><path transform="translate(-.038 -.045)" style="fill:#fcef3c;stroke:#000;stroke-width:3;stroke-linecap:round;stroke-linejoin:round" d="M505.604 210.96h-83.305l-24.254 308.049h131.811L505.604 210.96z"/><path transform="translate(-.038 -.045)" style="fill:#fcef3c;stroke:#000;stroke-width:3;stroke-linecap:round;stroke-linejoin:round" d="M501.914 181.046v24.253h-24.781v-24.253h-26.362v24.253H425.99v-24.253h-26.362v38.739h128.647v-38.739h-26.361z"/></g></g><g style="display:inline"><path style="fill:url(#b);fill-opacity:1" d="M1.5 1.5v458.868c0 166.31 134.315 301.132 300 301.132s300-134.821 300-301.132V1.5H1.5z"/></g><g style="display:inline"><path style="fill:none;fill-opacity:1;stroke:#000;stroke-width:3;stroke-miterlimit:4;stroke-dasharray:none;stroke-opacity:1" d="M1.5 1.5v458.868c0 166.31 134.315 301.132 300 301.132s300-134.821 300-301.132V1.5H1.5z"/></g></svg>

<?xml version="1.0" encoding="UTF-8" standalone="no"?>
<svg
   xmlns:dc="http://purl.org/dc/elements/1.1/"
   xmlns:cc="http://creativecommons.org/ns#"
   xmlns:rdf="http://www.w3.org/1999/02/22-rdf-syntax-ns#"
   xmlns:svg="http://www.w3.org/2000/svg"
   xmlns="http://www.w3.org/2000/svg"
   xmlns:xlink="http://www.w3.org/1999/xlink"
   xmlns:sodipodi="http://sodipodi.sourceforge.net/DTD/sodipodi-0.dtd"
   xmlns:inkscape="http://www.inkscape.org/namespaces/inkscape"
   height="763"
   width="603"
   version="1.0"
   id="svg20"
   sodipodi:version="0.32"
   inkscape:version="0.46"
   sodipodi:docname="Cadenazzo-coat_of_arms.svg"
   sodipodi:docbase="C:\Documents and Settings\Steve\Bureau\Blason Villages Suisse pour Wikipédia (par Delta-9)"
   inkscape:output_extension="org.inkscape.output.svg.inkscape">
  <metadata
     id="metadata31">
    <rdf:RDF>
      <cc:Work
         rdf:about="">
        <dc:format>image/svg+xml</dc:format>
        <dc:type
           rdf:resource="http://purl.org/dc/dcmitype/StillImage" />
        <dc:date>07-AUG-2006</dc:date>
        <dc:creator>
          <cc:Agent>
            <dc:title>Jérôme BLUM (wagner51)</dc:title>
          </cc:Agent>
        </dc:creator>
        <cc:license
           rdf:resource="http://creativecommons.org/licenses/GPL/2.0/" />
        <dc:coverage />
        <dc:description>Gabarit pour le Projet:Blasons de WIkipédia</dc:description>
        <dc:subject>
          <rdf:Bag>
            <rdf:li>blason suisse modèle gabarit projet blasons</rdf:li>
          </rdf:Bag>
        </dc:subject>
        <dc:language>fr</dc:language>
        <dc:title>Gabrit d'un blason suisse</dc:title>
      </cc:Work>
      <cc:License
         rdf:about="http://creativecommons.org/licenses/GPL/2.0/">
        <cc:permits
           rdf:resource="http://web.resource.org/cc/Reproduction" />
        <cc:permits
           rdf:resource="http://web.resource.org/cc/Distribution" />
        <cc:requires
           rdf:resource="http://web.resource.org/cc/Notice" />
        <cc:permits
           rdf:resource="http://web.resource.org/cc/DerivativeWorks" />
        <cc:requires
           rdf:resource="http://web.resource.org/cc/ShareAlike" />
        <cc:requires
           rdf:resource="http://web.resource.org/cc/SourceCode" />
      </cc:License>
    </rdf:RDF>
  </metadata>
  <defs
     id="defs29"><inkscape:perspective
   sodipodi:type="inkscape:persp3d"
   inkscape:vp_x="0 : 381.5 : 1"
   inkscape:vp_y="0 : 1000 : 0"
   inkscape:vp_z="603 : 381.5 : 1"
   inkscape:persp3d-origin="301.5 : 254.33333 : 1"
   id="perspective28" />
<linearGradient
   id="linearGradient2893">
  <stop
     style="stop-color:#ffffff;stop-opacity:0.3137255;"
     offset="0"
     id="stop2895" />
  <stop
     id="stop2897"
     offset="0.19"
     style="stop-color:#ffffff;stop-opacity:0.25098041;" />
  <stop
     style="stop-color:#6b6b6b;stop-opacity:0.1254902;"
     offset="0.60000002"
     id="stop2901" />
  <stop
     style="stop-color:#000000;stop-opacity:0.1254902;"
     offset="1"
     id="stop2899" />
</linearGradient>
<linearGradient
   id="linearGradient2955">
  <stop
     style="stop-color:white;stop-opacity:0;"
     offset="0"
     id="stop2965" />
  <stop
     style="stop-color:black;stop-opacity:0.64583331;"
     offset="1"
     id="stop2959" />
</linearGradient>
<radialGradient
   inkscape:collect="always"
   xlink:href="#linearGradient2893"
   id="radialGradient3236"
   gradientUnits="userSpaceOnUse"
   gradientTransform="matrix(1.215027,1.531577e-24,1.464684e-23,1.266667,-839.1924,-490.4894)"
   cx="858.04236"
   cy="579.93323"
   fx="858.04236"
   fy="579.93323"
   r="300" />
<inkscape:perspective
   id="perspective2506"
   inkscape:persp3d-origin="297.63751 : 280.63 : 1"
   inkscape:vp_z="595.27502 : 420.94501 : 1"
   inkscape:vp_y="0 : 1000 : 0"
   inkscape:vp_x="0 : 420.94501 : 1"
   sodipodi:type="inkscape:persp3d" />

	
	

	

		
		
	
		
		
		
	
			
			
			
		
			
			
			
		</defs>
  <sodipodi:namedview
     inkscape:window-height="968"
     inkscape:window-width="1280"
     inkscape:pageshadow="2"
     inkscape:pageopacity="0.0"
     guidetolerance="10.0"
     gridtolerance="10.0"
     objecttolerance="10.0"
     borderopacity="1.0"
     bordercolor="#666666"
     pagecolor="#ffffff"
     id="base"
     inkscape:zoom="0.81956241"
     inkscape:cx="333.71691"
     inkscape:cy="407.46999"
     inkscape:window-x="1280"
     inkscape:window-y="22"
     inkscape:current-layer="layer2"
     showgrid="false"
     showguides="true"
     inkscape:guide-bbox="true">
    <sodipodi:guide
       orientation="horizontal"
       position="761.5"
       id="guide1885" />
    <sodipodi:guide
       orientation="vertical"
       position="1.5"
       id="guide1887" />
    <sodipodi:guide
       orientation="horizontal"
       position="1.5"
       id="guide1889" />
    <sodipodi:guide
       orientation="vertical"
       position="601.5"
       id="guide1891" />
    <sodipodi:guide
       orientation="vertical"
       position="301.50081"
       id="guide1893" />
  </sodipodi:namedview>
  <desc
     id="desc22">Coat of Arms of Canton of Freiburg (Fribourg)</desc>
  <g
     inkscape:groupmode="layer"
     id="layer1"
     inkscape:label="Fond écu"
     style="opacity:1"
     sodipodi:insensitive="true">
    <path
       d="M 1.5,1.5 L 1.5,460.369 C 1.5,626.68 135.814,761.5 301.5,761.5 C 467.187,761.5 601.5,626.68 601.5,460.369 L 601.5,1.5 L 1.5,1.5 z"
       id="path1980"
       style="opacity:1;fill:#2b5df2" />
  </g>
  <g
     inkscape:groupmode="layer"
     id="layer2"
     inkscape:label="Meubles"
     style="opacity:1"
     sodipodi:insensitive="true">
    <g
       id="g2584">
      <path
         d="M 238,754.718 C 258.471,759.146 279.71,761.499 301.5,761.499 C 323.29,761.499 344.529,759.145 365,754.718 L 365,1.5 L 238,1.5 L 238,754.718 z"
         id="path1963"
         style="fill:#ffffff" />
      <path
         d="M 238,1.5 L 238,754.718"
         id="path1963_3_"
         style="fill:none;stroke:#000000;stroke-width:3" />
      <path
         d="M 364.999,754.718 L 364.999,1.5"
         id="path1963_2_"
         style="fill:none;stroke:#000000;stroke-width:3" />
    </g>
    <g
       id="g2576">
      <path
         style="fill:#e20909;stroke:#000000;stroke-width:3;stroke-linecap:round;stroke-linejoin:round"
         d="M 301.499,329.156 L 286.713,329.156 L 286.713,356.046 L 253.542,356.046 L 253.542,329.156 L 223.972,329.156 L 223.972,356.046 L 184.956,356.046 L 197.998,518.964 L 238,518.964 C 238,518.964 238,456.222 238,430.388 C 238,404.554 271.423,377.936 301.499,377.936 L 301.5,377.936 L 301.5,329.156 L 301.499,329.156 z"
         id="path2487" />
      <polygon
         transform="translate(-3.8e-2,-4.5e-2)"
         style="fill:#e20909;stroke:#000000;stroke-width:3;stroke-linecap:round;stroke-linejoin:round"
         points="97.472,210.96 73.218,519.009 205.03,519.009 180.776,210.96 97.472,210.96 "
         id="polygon2489" />
      <polygon
         transform="translate(-3.8e-2,-4.5e-2)"
         style="fill:#e20909;stroke:#000000;stroke-width:3;stroke-linecap:round;stroke-linejoin:round"
         points="177.085,205.299 152.305,205.299 152.305,181.046 125.942,181.046 125.942,205.299 101.163,205.299 101.163,181.046 74.8,181.046 74.8,219.785 203.448,219.785 203.448,181.046 177.085,181.046 177.085,205.299 "
         id="polygon2491" />
      <path
         style="fill:#fcef3c;stroke:#000000;stroke-width:3;stroke-linecap:round;stroke-linejoin:round"
         d="M 379.026,329.156 L 349.456,329.156 L 349.456,356.046 L 316.284,356.046 L 316.284,329.156 L 301.499,329.156 L 301.499,377.936 C 331.574,377.936 364.999,404.554 364.999,430.388 C 364.999,456.222 364.999,518.964 364.999,518.964 L 404.999,518.964 L 418.043,356.047 L 379.026,356.047 L 379.026,329.156 L 379.026,329.156 z"
         id="path2495" />
      <polygon
         transform="translate(-3.8e-2,-4.5e-2)"
         style="fill:#fcef3c;stroke:#000000;stroke-width:3;stroke-linecap:round;stroke-linejoin:round"
         points="505.604,210.96 422.299,210.96 398.045,519.009 529.856,519.009 505.604,210.96 "
         id="polygon2497" />
      <polygon
         transform="translate(-3.8e-2,-4.5e-2)"
         style="fill:#fcef3c;stroke:#000000;stroke-width:3;stroke-linecap:round;stroke-linejoin:round"
         points="501.914,181.046 501.914,205.299 477.133,205.299 477.133,181.046 450.771,181.046 450.771,205.299 425.99,205.299 425.99,181.046 399.628,181.046 399.628,219.785 528.275,219.785 528.275,181.046 501.914,181.046 "
         id="polygon2499" />
    </g>
  </g>
  <g
     inkscape:groupmode="layer"
     id="layer3"
     inkscape:label="Reflet final"
     style="display:inline"
     sodipodi:insensitive="true">
    <path
       style="fill:url(#radialGradient3236);fill-opacity:1"
       d="M 1.5,1.5 L 1.5,460.3679 C 1.5,626.67854 135.81454,761.5 301.49993,761.5 C 467.1854,761.5 601.5,626.67854 601.5,460.3679 L 601.5,1.5 L 1.5,1.5 z "
       id="path2346" />
  </g>
  <g
     inkscape:groupmode="layer"
     id="layer4"
     inkscape:label="Contour final"
     style="display:inline"
     sodipodi:insensitive="true">
    <path
       style="fill:none;fill-opacity:1;stroke:#000000;stroke-width:3;stroke-miterlimit:4;stroke-dasharray:none;stroke-opacity:1"
       d="M 1.5,1.5 L 1.5,460.36794 C 1.5,626.67854 135.81454,761.5 301.49993,761.5 C 467.1854,761.5 601.5,626.67854 601.5,460.36794 L 601.5,1.5 L 1.5,1.5 z "
       id="path3239" />
  </g>
</svg>
